!! 00000] TT[WS
!!!OTL: Zhishi qingnian chadui dao ancuen
!!!ARE: Asia, China, Shanxi Dingxiang
!! Ethnic Group: Han
!! WI, 333
!!!SCT: J0399
!!!YEM: Copyright 1995, estate of Helmut Schaffrath.
**kern
*ICvox
*Ivox
*M2/4
*k[b-e-]
*B-:
{8ddd
4ddd
8ddd
=1
4ccc
4ccc
=2
8ddd
8fff
8ddd
8ccc
=3
4.bb-
8ccc}
=4
{8ddd
4ddd
8ddd
=5
8ccc
8ddd
8ccc
8bb-
=6
8aa
8ccc
8aa
8gg
=7
2ff}
=8
{4.ff
8gg
=9
4bb-
8bb-
8ddd
=10
8.ccc
16ddd
8ccc
8ff
=11
2gg}
=12
{8ccc
8bb-
4ccc
=13
8ddd
8fff
8aa
8gg
=14
8ff
8dd
8ff
8gg
=15
4bb-
8aa
8gg
=16
8ff
8gg
8r
8dd
=17
2cc}
==
!!!AGN: Xiaodiao. Xinminge, Xuanchuan
!! Neue Text. Politische Liede
!!!ONB: ESAC (Essen Associative Code) Database: CHINA
!!!AMT: simple duple
!!!AIN: vox
!!!EED: Helmut Schaffrath
!!!EEV: 1.0
*-
